static/logos/typedream-wordmark-color.svg

<svg width="100" height="17" viewBox="0 0 100 17" fill="none" xmlns="http://www.w3.org/2000/svg">
<g clip-path="url(#clip0_1_590)">
<path d="M33.9688 5.45595V3.89343H41.3305V5.45595H38.5863V12.8571H36.713V5.45595H33.9688Z" fill="black"/>
<path d="M42.7632 15.3782C42.5269 15.3782 42.3051 15.3593 42.098 15.3213C41.8937 15.2863 41.7244 15.241 41.5902 15.1857L42.0104 13.7938C42.2292 13.861 42.4262 13.8974 42.6012 13.9032C42.7792 13.9091 42.9324 13.8682 43.0608 13.7807C43.1922 13.6931 43.2986 13.5443 43.3803 13.3342L43.4897 13.0498L41.0781 6.1344H43.039L44.4307 11.0715H44.5008L45.9058 6.1344H47.8797L45.2668 13.5837C45.1412 13.9456 44.9706 14.2607 44.7547 14.5291C44.5417 14.8004 44.2717 15.0091 43.9449 15.155C43.6181 15.3038 43.2243 15.3782 42.7632 15.3782Z" fill="black"/>
<path d="M48.7109 15.3781V6.13434H50.5493V7.26356H50.6324C50.714 7.08265 50.8323 6.89883 50.9869 6.71208C51.1445 6.52242 51.3488 6.36486 51.5997 6.23939C51.8535 6.11101 52.1687 6.04681 52.5451 6.04681C53.0352 6.04681 53.4875 6.17519 53.9019 6.43197C54.3162 6.68582 54.6474 7.06952 54.8954 7.58307C55.1434 8.0937 55.2674 8.73418 55.2674 9.50451C55.2674 10.2543 55.1463 10.8875 54.9041 11.404C54.6649 11.9175 54.3381 12.3071 53.9237 12.5727C53.5123 12.8353 53.0513 12.9665 52.5407 12.9665C52.1788 12.9665 51.871 12.9067 51.6172 12.7871C51.3662 12.6675 51.1605 12.5172 51 12.3363C50.8395 12.1525 50.717 11.9672 50.6324 11.7804H50.5755V15.3781H48.7109ZM50.5361 9.49577C50.5361 9.89552 50.5915 10.2442 50.7024 10.5418C50.8133 10.8394 50.9738 11.0714 51.1839 11.2377C51.394 11.4011 51.6493 11.4828 51.9498 11.4828C52.2533 11.4828 52.51 11.3996 52.7201 11.2333C52.9302 11.0641 53.0893 10.8306 53.1972 10.533C53.3081 10.2325 53.3635 9.8867 53.3635 9.49577C53.3635 9.10762 53.3095 8.76628 53.2015 8.47157C53.0936 8.17686 52.9345 7.94634 52.7245 7.78002C52.5144 7.61371 52.2561 7.53055 51.9498 7.53055C51.6463 7.53055 51.3896 7.61079 51.1795 7.77127C50.9723 7.93176 50.8133 8.15935 50.7024 8.45409C50.5915 8.7488 50.5361 9.09602 50.5361 9.49577Z" fill="black"/>
<path d="M59.4523 12.9885C58.7608 12.9885 58.1655 12.8484 57.6666 12.5682C57.1705 12.2852 56.7883 11.8854 56.5199 11.369C56.2514 10.8496 56.1172 10.2354 56.1172 9.52636C56.1172 8.83485 56.2514 8.22791 56.5199 7.70562C56.7883 7.18332 57.1662 6.77628 57.6535 6.48449C58.1437 6.19271 58.7184 6.04681 59.3779 6.04681C59.8214 6.04681 60.2343 6.1183 60.6165 6.26128C61.0017 6.40134 61.3373 6.61287 61.6232 6.89591C61.9121 7.17894 62.1368 7.53492 62.2973 7.96385C62.4577 8.38986 62.5379 8.8888 62.5379 9.46073V9.97283H56.8612V8.81737H60.7829C60.7829 8.54888 60.7245 8.31107 60.6078 8.10391C60.4911 7.89674 60.3291 7.7348 60.122 7.61808C59.9177 7.49845 59.6799 7.43864 59.4085 7.43864C59.1255 7.43864 58.8746 7.50428 58.6558 7.63559C58.4398 7.76397 58.2705 7.93759 58.148 8.15643C58.0255 8.37235 57.9627 8.61308 57.9598 8.87863V9.9772C57.9598 10.3098 58.0211 10.5972 58.1437 10.8394C58.2691 11.0816 58.4457 11.2684 58.6732 11.3996C58.9008 11.531 59.1707 11.5966 59.483 11.5966C59.6901 11.5966 59.8798 11.5675 60.052 11.509C60.2241 11.4507 60.3715 11.3632 60.494 11.2464C60.6165 11.1297 60.7099 10.9868 60.7741 10.8175L62.4986 10.9313C62.4111 11.3457 62.2316 11.7075 61.9602 12.0168C61.6918 12.3232 61.3446 12.5624 60.9185 12.7346C60.4954 12.9038 60.0067 12.9885 59.4523 12.9885Z" fill="black"/>
<path d="M66.1095 12.9665C65.5989 12.9665 65.1364 12.8353 64.7221 12.5727C64.3107 12.3071 63.9839 11.9175 63.7417 11.404C63.5025 10.8875 63.3828 10.2544 63.3828 9.50452C63.3828 8.73419 63.5068 8.09371 63.7548 7.58308C64.0029 7.06953 64.3326 6.68584 64.744 6.43198C65.1584 6.17521 65.6121 6.04683 66.1052 6.04683C66.4816 6.04683 66.7952 6.11102 67.0462 6.2394C67.3 6.36487 67.5043 6.52243 67.6589 6.7121C67.8165 6.89884 67.9362 7.08267 68.0179 7.26358H68.0747V3.89343H69.9349V12.8571H68.0967V11.7804H68.0179C67.9303 11.9672 67.8063 12.1525 67.6458 12.3363C67.4883 12.5172 67.2826 12.6675 67.0287 12.7871C66.7778 12.9067 66.4714 12.9665 66.1095 12.9665ZM66.7005 11.4828C67.001 11.4828 67.2548 11.4011 67.462 11.2377C67.6721 11.0714 67.8326 10.8394 67.9435 10.5418C68.0573 10.2442 68.1142 9.89553 68.1142 9.49579C68.1142 9.09604 68.0587 8.74881 67.9479 8.4541C67.8369 8.15937 67.6765 7.93177 67.4663 7.77128C67.2563 7.6108 67.001 7.53056 66.7005 7.53056C66.3941 7.53056 66.1358 7.61372 65.9258 7.78004C65.7157 7.94636 65.5566 8.17687 65.4487 8.47158C65.3407 8.76629 65.2868 9.10763 65.2868 9.49579C65.2868 9.88671 65.3407 10.2325 65.4487 10.533C65.5595 10.8307 65.7186 11.0641 65.9258 11.2333C66.1358 11.3997 66.3941 11.4828 66.7005 11.4828Z" fill="black"/>
<path d="M71.3438 12.8571V6.13437H73.1513V7.30735H73.2214C73.3439 6.8901 73.5496 6.57498 73.8385 6.36197C74.1274 6.14604 74.46 6.03809 74.8364 6.03809C74.9298 6.03809 75.0305 6.04392 75.1384 6.05559C75.2464 6.06726 75.3412 6.08331 75.4229 6.10373V7.75817C75.3353 7.73191 75.2143 7.70856 75.0596 7.68814C74.905 7.66772 74.7635 7.65751 74.6351 7.65751C74.3608 7.65751 74.1157 7.71732 73.8998 7.83695C73.6868 7.95367 73.5175 8.11707 73.3921 8.32715C73.2695 8.53723 73.2082 8.77941 73.2082 9.0537V12.8571H71.3438Z" fill="black"/>
<path d="M79.0148 12.9885C78.3233 12.9885 77.7281 12.8484 77.2291 12.5682C76.733 12.2852 76.3509 11.8854 76.0824 11.369C75.814 10.8496 75.6797 10.2354 75.6797 9.52636C75.6797 8.83485 75.814 8.22791 76.0824 7.70562C76.3509 7.18332 76.7287 6.77628 77.216 6.48449C77.7062 6.19271 78.281 6.04681 78.9404 6.04681C79.384 6.04681 79.7968 6.1183 80.1791 6.26128C80.5642 6.40134 80.8998 6.61287 81.1857 6.89591C81.4746 7.17894 81.6993 7.53492 81.8598 7.96385C82.0203 8.38986 82.1005 8.8888 82.1005 9.46073V9.97283H76.4238V8.81737H80.3454C80.3454 8.54888 80.2871 8.31107 80.1704 8.10391C80.0536 7.89674 79.8917 7.7348 79.6845 7.61808C79.4803 7.49845 79.2425 7.43864 78.9711 7.43864C78.688 7.43864 78.4371 7.50428 78.2183 7.63559C78.0024 7.76397 77.8331 7.93759 77.7105 8.15643C77.588 8.37235 77.5253 8.61308 77.5224 8.87863V9.9772C77.5224 10.3098 77.5836 10.5972 77.7062 10.8394C77.8316 11.0816 78.0082 11.2684 78.2357 11.3996C78.4634 11.531 78.7333 11.5966 79.0455 11.5966C79.2526 11.5966 79.4423 11.5675 79.6145 11.509C79.7867 11.4507 79.934 11.3632 80.0565 11.2464C80.1791 11.1297 80.2725 10.9868 80.3367 10.8175L82.0611 10.9313C81.9736 11.3457 81.7941 11.7075 81.5228 12.0168C81.2543 12.3232 80.9071 12.5624 80.4811 12.7346C80.058 12.9038 79.5693 12.9885 79.0148 12.9885Z" fill="black"/>
<path d="M85.1069 12.984C84.6784 12.984 84.296 12.9096 83.9605 12.7608C83.6249 12.6091 83.3594 12.3859 83.1639 12.0911C82.9713 11.7936 82.875 11.423 82.875 10.9795C82.875 10.6059 82.9436 10.2923 83.0807 10.0385C83.2179 9.7846 83.4046 9.58031 83.641 9.42569C83.8774 9.27107 84.1456 9.15434 84.4464 9.07552C84.7498 8.99678 85.0674 8.94132 85.4002 8.90922C85.7918 8.86838 86.1069 8.83048 86.3456 8.79544C86.5851 8.75754 86.759 8.70207 86.8666 8.62913C86.975 8.55619 87.0288 8.44821 87.0288 8.30524V8.27898C87.0288 8.00178 86.9414 7.78732 86.7658 7.63559C86.5935 7.48386 86.3489 7.408 86.0305 7.408C85.6952 7.408 85.4279 7.4824 85.2296 7.63122C85.0313 7.77711 84.9002 7.96093 84.8355 8.18269L83.1114 8.04263C83.1989 7.63413 83.371 7.28107 83.6279 6.98344C83.8846 6.68291 84.2162 6.45239 84.6212 6.29191C85.0296 6.12851 85.5027 6.04681 86.0397 6.04681C86.4128 6.04681 86.77 6.09058 87.112 6.17812C87.4557 6.26565 87.7607 6.40134 88.0263 6.58516C88.2952 6.76898 88.5061 7.00533 88.6616 7.2942C88.8162 7.58015 88.8935 7.923 88.8935 8.32275V12.8571H87.1246V11.9248H87.0725C86.9641 12.1349 86.8204 12.3202 86.6389 12.4807C86.4582 12.6383 86.2405 12.7623 85.9868 12.8527C85.733 12.9403 85.4397 12.984 85.1069 12.984ZM85.6414 11.6973C85.9153 11.6973 86.1574 11.6433 86.3674 11.5354C86.5775 11.4244 86.7431 11.2756 86.8624 11.0889C86.9817 10.9022 87.0414 10.6906 87.0414 10.4543V9.74081C86.9834 9.7788 86.9027 9.81376 86.801 9.84586C86.7019 9.87502 86.5893 9.90275 86.4641 9.92905C86.3389 9.95241 86.2128 9.97426 86.0876 9.99468C85.9624 10.0122 85.8481 10.0282 85.7464 10.0428C85.5271 10.0749 85.3363 10.126 85.1725 10.196C85.0095 10.266 84.8826 10.3609 84.7918 10.4805C84.7019 10.5972 84.6565 10.7431 84.6565 10.9182C84.6565 11.1721 84.7481 11.3661 84.9321 11.5003C85.1187 11.6317 85.3548 11.6973 85.6414 11.6973Z" fill="black"/>
<path d="M90.2188 12.8571V6.13434H91.9961V7.32046H92.075C92.2145 6.92655 92.4482 6.6158 92.7751 6.3882C93.1019 6.1606 93.4927 6.04681 93.9482 6.04681C94.4087 6.04681 94.8011 6.16207 95.1255 6.39258C95.449 6.62017 95.665 6.92947 95.7734 7.32046H95.8431C95.9801 6.9353 96.228 6.62747 96.5877 6.39696C96.949 6.16353 97.3767 6.04681 97.87 6.04681C98.4969 6.04681 99.0061 6.24669 99.3969 6.64644C99.791 7.04326 99.9877 7.60641 99.9877 8.33588V12.8571H98.128V8.7035C98.128 8.33004 98.0288 8.04993 97.8305 7.86318C97.6322 7.67644 97.3835 7.58307 97.086 7.58307C96.7473 7.58307 96.4835 7.69103 96.2944 7.90695C96.1045 8.11996 96.0095 8.40153 96.0095 8.75165V12.8571H94.2019V8.66418C94.2019 8.33442 94.107 8.07181 93.9171 7.87632C93.7305 7.68081 93.4843 7.58307 93.1776 7.58307C92.9709 7.58307 92.7835 7.63559 92.6171 7.74064C92.454 7.84276 92.3246 7.98719 92.228 8.17394C92.1314 8.35776 92.0835 8.57367 92.0835 8.82174V12.8571H90.2188Z" fill="black"/>
<path fill-rule="evenodd" clip-rule="evenodd" d="M27.4814 12.6644C27.4814 10.3331 25.5916 8.44318 23.2602 8.44318C20.929 8.44318 19.0391 10.3331 19.0391 12.6644C19.0391 14.9957 20.929 16.8855 23.2602 16.8855C25.5916 16.8855 27.4814 14.9957 27.4814 12.6644Z" fill="#00C0FF"/>
<path fill-rule="evenodd" clip-rule="evenodd" d="M14.9766 16.8887H23.254V9.23773H14.9766V16.8887Z" fill="#00C0FF"/>
<path fill-rule="evenodd" clip-rule="evenodd" d="M23.252 8.44625C23.252 3.78369 19.4722 0.00390625 14.8096 0.00390625C10.147 0.00390625 6.36719 3.78369 6.36719 8.44625C6.36719 13.1089 10.147 16.8887 14.8096 16.8887C19.4722 16.8887 23.252 13.1089 23.252 8.44625Z" fill="#8000FF"/>
<path fill-rule="evenodd" clip-rule="evenodd" d="M14.9642 16.8682L7.71756 16.6764C7.50262 16.6934 7.28579 16.7021 7.06742 16.702C6.71233 16.7019 6.35319 16.6788 5.99168 16.6314C5.99165 16.6314 5.99161 16.6314 5.99156 16.6314H5.9912C5.9835 16.6304 5.97579 16.6294 5.96809 16.6284C1.46402 16.0256 4.96556 13.1508 5.56827 8.64679C6.17098 4.14275 5.12584 8.24071 7.42273 4.31973C8.81025 1.95114 10.656 1.07139 10.6728 1.07841C13.8449 2.40597 15.6889 5.94589 15.2176 9.54116H15.2178C15.2178 9.54116 14.5677 14.3748 14.4697 15.1375C14.4198 15.5254 14.5332 16.0183 14.5934 16.1883C14.8162 16.8184 14.9642 16.8682 14.9642 16.8682Z" fill="#6000C0"/>
<path fill-rule="evenodd" clip-rule="evenodd" d="M6.33173 16.8886C2.83478 16.8886 0 14.0538 0 10.5568C0 7.05989 2.83478 4.22504 6.33173 4.22504C9.82268 4.22504 12.6538 7.05021 12.6634 10.5389H12.6635V10.5568V11.8021C12.6635 13.7238 13.45 15.5618 14.8401 16.8886H12.6635H6.34972V16.8886C6.34373 16.8886 6.33773 16.8886 6.33173 16.8886Z" fill="#FF0060"/>
<path fill-rule="evenodd" clip-rule="evenodd" d="M6.35156 16.8886H12.6654V10.5389H6.35156V16.8886Z" fill="#FF0060"/>
</g>
<defs>
<clipPath id="clip0_1_590">
<rect width="100" height="16.8908" fill="white"/>
</clipPath>
</defs>
</svg>

<svg xmlns="http://www.w3.org/2000/svg" width="376.471" height="64" fill="none" viewBox="0 0 100 17"><g clip-path="url(#a)"><path fill="#000" d="M33.969 5.456V3.893h7.361v1.563h-2.744v7.401h-1.873V5.456h-2.744Z"/><path fill="#000" d="M42.763 15.378c-.236 0-.458-.019-.665-.057a2.43 2.43 0 0 1-.508-.135l.42-1.392c.22.067.416.103.591.11a.75.75 0 0 0 .46-.123c.131-.088.238-.237.32-.447l.109-.284-2.412-6.916h1.961l1.392 4.938h.07l1.405-4.938h1.974l-2.613 7.45a3.13 3.13 0 0 1-.512.945 2.1 2.1 0 0 1-.81.626c-.327.149-.72.223-1.182.223ZM48.71 15.378V6.134h1.84v1.13h.082c.082-.181.2-.365.355-.552a1.87 1.87 0 0 1 .613-.473c.253-.128.569-.192.945-.192.49 0 .942.128 1.357.385.414.254.745.638.993 1.151.248.51.372 1.151.372 1.922 0 .75-.12 1.382-.363 1.899-.24.514-.566.903-.98 1.169a2.516 2.516 0 0 1-1.383.393c-.362 0-.67-.06-.924-.179a1.91 1.91 0 0 1-.617-.45 2.287 2.287 0 0 1-.368-.557h-.056v3.598H48.71Zm1.826-5.882c0 .4.056.748.166 1.046.111.297.272.53.482.696.21.163.465.245.766.245.303 0 .56-.083.77-.25.21-.169.37-.402.477-.7.111-.3.166-.646.166-1.037 0-.388-.053-.73-.161-1.024a1.526 1.526 0 0 0-.477-.692 1.21 1.21 0 0 0-.775-.25c-.304 0-.56.08-.77.241a1.51 1.51 0 0 0-.478.683c-.11.295-.166.642-.166 1.042ZM59.452 12.989c-.691 0-1.286-.14-1.785-.42a2.877 2.877 0 0 1-1.147-1.2c-.269-.52-.403-1.134-.403-1.843 0-.691.134-1.298.403-1.82.268-.523.646-.93 1.133-1.222.49-.291 1.065-.437 1.725-.437.443 0 .856.071 1.239.214.385.14.72.352 1.006.635.29.283.514.639.674 1.068.16.426.24.925.24 1.497v.512h-5.676V8.817h3.922c0-.268-.059-.506-.175-.713a1.254 1.254 0 0 0-.486-.486 1.386 1.386 0 0 0-.714-.18c-.282 0-.533.066-.752.198a1.38 1.38 0 0 0-.508.52 1.471 1.471 0 0 0-.188.723v1.098c0 .333.061.62.184.862.125.243.302.43.53.56.227.132.497.198.809.198.207 0 .397-.03.569-.088a1.142 1.142 0 0 0 .722-.691l1.725.113a2.354 2.354 0 0 1-.539 1.086 2.702 2.702 0 0 1-1.041.718c-.424.169-.912.254-1.467.254ZM66.11 12.966c-.511 0-.974-.13-1.388-.393-.411-.266-.738-.655-.98-1.169-.24-.517-.36-1.15-.36-1.9 0-.77.125-1.41.373-1.92.248-.514.578-.898.989-1.152a2.535 2.535 0 0 1 1.361-.385c.377 0 .69.064.941.192.254.126.458.283.613.473.157.187.277.37.359.552h.057v-3.37h1.86v8.963h-1.838V11.78h-.08a2.404 2.404 0 0 1-.371.556c-.158.181-.363.332-.617.451-.251.12-.558.18-.92.18Zm.59-1.483c.301 0 .555-.082.762-.245.21-.167.37-.399.481-.696.114-.298.171-.646.171-1.046s-.055-.747-.166-1.042a1.495 1.495 0 0 0-.482-.683c-.21-.16-.465-.24-.765-.24-.307 0-.565.083-.775.249-.21.166-.37.397-.477.692a2.97 2.97 0 0 0-.162 1.024c0 .39.054.736.162 1.037.11.298.27.531.477.7.21.167.468.25.775.25ZM71.344 12.857V6.134h1.807v1.173h.07c.123-.417.329-.732.617-.945.29-.216.622-.324.998-.324a2.82 2.82 0 0 1 .587.066v1.654a2.436 2.436 0 0 0-.363-.07 3.263 3.263 0 0 0-.425-.03c-.274 0-.52.06-.735.179a1.32 1.32 0 0 0-.508.49c-.123.21-.184.452-.184.727v3.803h-1.864ZM79.015 12.989c-.692 0-1.287-.14-1.786-.42a2.878 2.878 0 0 1-1.147-1.2c-.268-.52-.402-1.134-.402-1.843 0-.691.134-1.298.402-1.82.269-.523.647-.93 1.134-1.222.49-.291 1.065-.437 1.724-.437.444 0 .857.071 1.24.214.384.14.72.352 1.006.635.289.283.513.639.674 1.068.16.426.24.925.24 1.497v.512h-5.676V8.817h3.921c0-.268-.058-.506-.175-.713a1.255 1.255 0 0 0-.486-.486 1.385 1.385 0 0 0-.713-.18c-.283 0-.534.066-.753.198a1.382 1.382 0 0 0-.508.52 1.471 1.471 0 0 0-.188.723v1.098c0 .333.062.62.184.862.126.243.302.43.53.56.227.132.497.198.81.198.207 0 .396-.03.569-.088a1.14 1.14 0 0 0 .722-.691l1.724.113a2.355 2.355 0 0 1-.538 1.086 2.704 2.704 0 0 1-1.042.718c-.423.169-.912.254-1.466.254ZM85.107 12.984c-.429 0-.811-.074-1.147-.223a1.845 1.845 0 0 1-.796-.67c-.193-.297-.289-.668-.289-1.111 0-.374.069-.688.206-.941.137-.254.324-.459.56-.613.236-.155.505-.272.805-.35.304-.08.621-.135.954-.167.392-.04.707-.079.946-.114.24-.037.413-.093.52-.166a.365.365 0 0 0 .163-.324V8.28c0-.277-.088-.492-.263-.643-.172-.152-.417-.228-.736-.228-.335 0-.602.074-.8.223a1.03 1.03 0 0 0-.395.552l-1.724-.14c.088-.409.26-.762.517-1.06.257-.3.588-.53.993-.691.409-.163.882-.245 1.419-.245.373 0 .73.044 1.072.131.344.088.649.223.914.407.27.184.48.42.636.71.154.285.231.628.231 1.028v4.534h-1.768v-.932h-.052c-.109.21-.253.395-.434.556-.18.157-.398.281-.652.372a2.694 2.694 0 0 1-.88.131Zm.534-1.287c.274 0 .516-.054.726-.162.21-.11.376-.26.495-.446.12-.187.18-.398.18-.635v-.713a.995.995 0 0 1-.241.105c-.1.029-.212.057-.337.083a16.81 16.81 0 0 1-.376.066l-.342.048c-.219.032-.41.083-.573.153a.921.921 0 0 0-.381.284.696.696 0 0 0-.136.438c0 .254.092.448.276.582.187.132.423.197.71.197ZM90.219 12.857V6.134h1.777V7.32h.079a1.86 1.86 0 0 1 .7-.932c.327-.227.718-.341 1.173-.341.46 0 .853.115 1.178.346.323.227.539.536.647.927h.07c.137-.385.385-.693.745-.923.361-.233.789-.35 1.282-.35.627 0 1.136.2 1.527.6.394.396.59.96.59 1.689v4.521h-1.859V8.704c0-.374-.1-.654-.297-.84a1.044 1.044 0 0 0-.745-.28c-.339 0-.602.107-.792.323-.19.213-.284.495-.284.845v4.105h-1.808V8.664c0-.33-.095-.592-.285-.788-.186-.195-.433-.293-.74-.293a1.03 1.03 0 0 0-.56.158 1.086 1.086 0 0 0-.389.433c-.097.184-.144.4-.144.648v4.035h-1.865Z"/><path fill="#00C0FF" fill-rule="evenodd" d="M27.481 12.664a4.221 4.221 0 1 0-8.442 0 4.221 4.221 0 0 0 8.442 0Z" clip-rule="evenodd"/><path fill="#00C0FF" fill-rule="evenodd" d="M14.977 16.889h8.277V9.238h-8.277v7.65Z" clip-rule="evenodd"/><path fill="#8000FF" fill-rule="evenodd" d="M23.252 8.446a8.442 8.442 0 1 0-16.885 0 8.442 8.442 0 0 0 16.885 0Z" clip-rule="evenodd"/><path fill="#6000C0" fill-rule="evenodd" d="m14.964 16.868-7.246-.192a8.197 8.197 0 0 1-1.726-.045l-.024-.003c-4.504-.602-1.002-3.477-.4-7.981.603-4.504-.442-.406 1.855-4.327 1.387-2.369 3.233-3.249 3.25-3.242 3.172 1.328 5.016 4.868 4.545 8.463 0 0-.65 4.834-.748 5.596-.05.388.063.881.123 1.051.223.63.371.68.371.68Z" clip-rule="evenodd"/><path fill="#FF0060" fill-rule="evenodd" d="M6.332 16.889a6.332 6.332 0 1 1 6.331-6.35V11.802c0 1.922.787 3.76 2.177 5.087H6.332Z" clip-rule="evenodd"/><path fill="#FF0060" fill-rule="evenodd" d="M6.352 16.889h6.313v-6.35H6.352v6.35Z" clip-rule="evenodd"/></g><defs><clipPath id="a"><path fill="#fff" d="M0 0h100v16.891H0z"/></clipPath></defs></svg>
